icons/desktop/16/svg/signature-16.svg

<svg width="16" height="16" viewBox="0 0 16 16" fill="none" xmlns="http://www.w3.org/2000/svg">
<g clip-path="url(#clip0_8069_32518)">
<path d="M6.80273 0.015625C7.31366 0.0296229 7.8001 0.238687 8.16309 0.600586L11.4082 3.8457C11.7822 4.21966 11.9931 4.72788 11.9941 5.25781V6.04492C11.4842 6.50688 10.9849 6.98077 10.501 7.46973V5.5H7.50098C6.94899 5.49999 6.50098 5.05199 6.50098 4.5V1.5127C6.33599 1.50869 6.15697 1.5 6.00098 1.5C4.85511 1.5 3.70021 1.57281 2.56934 1.71777C1.95434 1.79677 1.50098 2.33701 1.50098 2.95801V13.041C1.50098 13.67 1.96318 14.2033 2.57617 14.2812C4.84197 14.5712 7.17681 14.5702 9.43262 14.2812C9.46662 14.2772 9.49434 14.258 9.52734 14.25H11.709C11.311 15.059 10.531 15.6544 9.58398 15.7744C8.40301 15.9244 7.19698 16 6 16C4.795 16 3.57874 15.9235 2.38574 15.7715C1.02484 15.5984 0 14.4249 0 13.042V2.96973C0.000148548 1.60292 1.11392 0.387851 2.46973 0.21875C3.63273 0.07375 4.821 0 6 0C6.16795 0 6.49082 0.00762735 6.80273 0.015625Z" fill="black"/>
<path d="M5.4541 8.98633C5.93304 9.04137 6.29543 9.39899 6.35742 9.87695C6.42042 10.3499 6.47918 10.7171 6.53418 10.998C6.73916 10.8041 7.00299 10.6738 7.29395 10.6328C7.4839 10.6058 7.66488 10.6441 7.83984 10.7031C7.78591 10.885 7.75199 11.0728 7.75195 11.2646L7.75098 11.2637V12.1621L7.58008 11.9219C7.57003 11.9048 7.53576 11.8591 7.46484 11.8701C7.42889 11.8752 7.38137 11.8952 7.3584 11.959C7.20444 12.3989 6.99115 12.9997 6.4375 13H6.41992C5.81604 12.9829 5.50811 12.47 5.24414 10.8994L4.88086 11.8672C4.64484 12.498 4.03414 12.9208 3.36035 12.9209H3.12402C2.77902 12.9209 2.49902 12.6409 2.49902 12.2959C2.49907 11.9509 2.77905 11.6719 3.12402 11.6719H3.36035C3.51622 11.6717 3.65695 11.5736 3.71191 11.4277L4.38184 9.64062C4.54891 9.19478 4.99319 8.93234 5.4541 8.98633Z" fill="black"/>
<path d="M14.5 9.75684C14.127 10.1508 13.7464 10.5391 13.3574 10.9141C12.6695 11.578 11.9403 12.2259 11.1914 12.8389C11.0635 12.9438 10.9062 12.9999 10.7373 13H9.25195C9.114 13 9.00198 12.888 9.00195 12.75V11.2646C9.00202 11.0988 9.05915 10.9365 9.16309 10.8105C9.76802 10.0706 10.416 9.34144 11.0879 8.64453C11.4628 8.25559 11.8511 7.8749 12.2461 7.50195L14.5 9.75684Z" fill="black"/>
<path d="M13.5918 6.29102C14.0718 5.88102 14.7952 5.91142 15.2402 6.35742L15.6455 6.7627H15.6475C16.0924 7.2087 16.1209 7.93315 15.7119 8.41211C15.538 8.61603 15.3528 8.81274 15.1729 9.01367L12.9902 6.83105C13.1912 6.65112 13.3879 6.46496 13.5918 6.29102Z" fill="black"/>
</g>
<defs>
<clipPath id="clip0_8069_32518">
<rect width="16" height="16" fill="white"/>
</clipPath>
</defs>
</svg>

<!-- This Source Code Form is subject to the terms of the Mozilla Public
   - License, v. 2.0. If a copy of the MPL was not distributed with this
   - file, You can obtain one at http://mozilla.org/MPL/2.0/. -->
<svg xmlns="http://www.w3.org/2000/svg" width="16" height="16" fill="context-fill" fill-opacity="context-fill-opacity" viewBox="0 0 16 16">
    <g clip-path="url(#clip0_8069_32518)">
        <path d="M6.803.016c.51.014.997.223 1.36.585l3.245 3.245c.374.374.585.882.586 1.412v.787q-.767.692-1.493 1.425V5.5h-3a1 1 0 0 1-1-1V1.513c-.165-.004-.344-.013-.5-.013-1.146 0-2.3.073-3.432.218-.615.079-1.068.619-1.068 1.24v10.083c0 .629.462 1.162 1.075 1.24 2.266.29 4.6.29 6.857 0 .034-.004.061-.023.094-.031h2.182a2.76 2.76 0 0 1-2.125 1.524 28.6 28.6 0 0 1-7.198-.002A2.75 2.75 0 0 1 0 13.042V2.97C0 1.603 1.114.388 2.47.219A29 29 0 0 1 6 0c.168 0 .49.008.803.016" />
        <path d="M5.454 8.986c.479.055.841.413.903.891.063.473.122.84.177 1.121.205-.194.469-.324.76-.365.19-.027.37.011.546.07-.054.182-.088.37-.088.562l-.001-.001v.898l-.17-.24a.11.11 0 0 0-.116-.052.13.13 0 0 0-.107.089c-.154.44-.367 1.04-.92 1.041H6.42c-.604-.017-.912-.53-1.176-2.1l-.363.967a1.63 1.63 0 0 1-1.52 1.054h-.237a.625.625 0 0 1 0-1.25h.236a.38.38 0 0 0 .352-.243l.67-1.787a1.016 1.016 0 0 1 1.072-.655M14.5 9.757q-.56.593-1.143 1.157a36 36 0 0 1-2.166 1.925.7.7 0 0 1-.454.161H9.252a.25.25 0 0 1-.25-.25v-1.485c0-.166.057-.328.161-.455a34.606 34.606 0 0 1 3.083-3.309zM13.592 6.291a1.22 1.22 0 0 1 1.648.066l.406.406h.002c.444.446.473 1.17.064 1.65-.174.203-.36.4-.54.6L12.99 6.832c.201-.18.398-.366.602-.54" />
    </g>
</svg>
